styles/5/Numix/32/places/purple-folder-move.svg

<?xml version="1.0" encoding="UTF-8" standalone="no"?>
<svg
   xmlns:dc="http://purl.org/dc/elements/1.1/"
   xmlns:cc="http://creativecommons.org/ns#"
   xmlns:rdf="http://www.w3.org/1999/02/22-rdf-syntax-ns#"
   xmlns:svg="http://www.w3.org/2000/svg"
   xmlns="http://www.w3.org/2000/svg"
   xmlns:sodipodi="http://sodipodi.sourceforge.net/DTD/sodipodi-0.dtd"
   xmlns:inkscape="http://www.inkscape.org/namespaces/inkscape"
   viewBox="0 0 32 32"
   id="svg2"
   version="1.1"
   inkscape:version="0.91 r13725"
   sodipodi:docname="blue-folder-move.svg">
  <metadata
     id="metadata28">
    <rdf:RDF>
      <cc:Work
         rdf:about="">
        <dc:format>image/svg+xml</dc:format>
        <dc:type
           rdf:resource="http://purl.org/dc/dcmitype/StillImage" />
      </cc:Work>
    </rdf:RDF>
  </metadata>
  <defs
     id="defs26" />
  <sodipodi:namedview
     pagecolor="#ffffff"
     bordercolor="#666666"
     borderopacity="1"
     objecttolerance="10"
     gridtolerance="10"
     guidetolerance="10"
     inkscape:pageopacity="0"
     inkscape:pageshadow="2"
     inkscape:window-width="722"
     inkscape:window-height="480"
     id="namedview24"
     showgrid="false"
     inkscape:zoom="7.375"
     inkscape:cx="16"
     inkscape:cy="16"
     inkscape:window-x="10"
     inkscape:window-y="34"
     inkscape:window-maximized="0"
     inkscape:current-layer="svg2" />
  <rect
     ry="2.187"
     rx="1.957"
     y="5.9977856"
     x="2"
     height="12"
     width="18"
     style="fill:#512da8;fill-opacity:1;stroke:none"
     id="rect8" />
  <path
     d="M 3.957,5.9978 C 2.873,5.9978 2,7.1128 2,8.4978 l 0,1 c 0,-1.385 0.873,-2.5 1.957,-2.5 l 14.09,0 c 1.084,0 1.957,1.115 1.957,2.5 l 0,-1 c 0,-1.385 -0.873,-2.5 -1.957,-2.5 z"
     style="opacity:0.1;fill:#ffffff;fill-opacity:1;stroke:none"
     id="path10"
     inkscape:connector-curvature="0" />
  <path
     d="m 3.957,8.9978 3.13,0 c 4.304,-0.444 3.522,-5 6.261,-5 l 4.696,0 c 1.084,0 1.957,0.991 1.957,2.222 l 0,9.556 c 0,1.231 -0.873,2.222 -1.957,2.222 l -14.09,0 c -1.084,0 -1.957,-0.991 -1.957,-2.222 l 0,-4.222 c 0,-1.333 0.783,-2.556 1.957,-2.556 z"
     style="fill:#7e57c2;fill-opacity:1;stroke:none"
     id="path12"
     inkscape:connector-curvature="0" />
  <path
     d="m 2,14.8878 0,0.889 c 0,1.231 0.873,2.222 1.957,2.222 l 14.09,0 c 1.084,0 1.957,-0.991 1.957,-2.222 l 0,-0.889 c 0,1.231 -0.873,2.111 -1.957,2.111 l -14.09,0 C 2.873,16.9988 2,16.1188 2,14.8878 Z"
     style="opacity:0.075;fill:#000000;fill-opacity:1;stroke:none"
     id="path14"
     inkscape:connector-curvature="0" />
  <path
     style="fill:#ffffff;fill-opacity:1;stroke:none;opacity:0.5"
     d="M 13.347656 3.9980469 C 12.109648 3.9980469 11.588265 4.9368997 10.994141 5.9980469 L 3.9570312 5.9980469 C 2.8728532 5.9980469 2 6.9739489 2 8.1855469 L 2 8.4980469 L 2 9.4980469 L 2 11.501953 C 1.9997223 11.519692 1.9960938 11.536907 1.9960938 11.554688 L 1.9960938 15.775391 C 1.9960938 15.787455 1.9998329 15.79853 2 15.810547 C 2.0019639 15.951808 2.0131586 16.091062 2.0371094 16.224609 C 2.1607105 16.948753 2.5996573 17.544386 3.1914062 17.824219 C 3.2609334 17.857098 3.3367407 17.876522 3.4101562 17.900391 C 3.4614315 17.917226 3.5095593 17.941008 3.5625 17.953125 C 3.6889547 17.982067 3.8189494 17.998047 3.953125 17.998047 C 3.954449 17.99805 3.9557066 17.998047 3.9570312 17.998047 L 18.044922 17.998047 C 18.180391 17.997898 18.311891 17.982289 18.439453 17.953125 C 18.439453 17.953125 18.441406 17.953125 18.441406 17.953125 C 18.529099 17.932852 18.612374 17.89827 18.695312 17.865234 C 18.731731 17.850728 18.771255 17.843007 18.806641 17.826172 C 18.832819 17.813839 18.855284 17.7948 18.880859 17.78125 C 18.969611 17.733759 19.057907 17.686494 19.138672 17.625 C 19.140135 17.623897 19.141118 17.622201 19.142578 17.621094 C 19.560319 17.304378 19.861931 16.811346 19.962891 16.236328 C 19.988091 16.099049 19.998088 15.956029 20 15.810547 C 20.000149 15.799185 20.003906 15.788747 20.003906 15.777344 L 20.003906 14.888672 C 20.003906 14.89613 20.002017 14.902724 20.001953 14.910156 L 20.001953 9.4726562 C 20.002022 9.4813243 20.003906 9.4893574 20.003906 9.4980469 L 20.003906 8.4980469 C 20.003906 8.4893574 20.002022 8.4813243 20.001953 8.4726562 L 20.001953 6.2207031 C 20.001953 4.9897031 19.128922 3.9980469 18.044922 3.9980469 L 13.347656 3.9980469 z "
     id="rect4167" />
  <rect
     id="rect16"
     style="fill:#512da8;fill-opacity:1;stroke:none"
     ry="2.187"
     rx="1.957"
     y="15.997786"
     x="12"
     height="12"
     width="18" />
  <path
     inkscape:connector-curvature="0"
     id="path18"
     style="opacity:0.2;fill:#ffffff;fill-opacity:1;stroke:none"
     d="m 13.957,15.9978 c -1.084,0 -1.957,1.115 -1.957,2.5 l 0,1 c 0,-1.385 0.873,-2.5 1.957,-2.5 l 14.09,0 c 1.084,0 1.957,1.115 1.957,2.5 l 0,-1 c 0,-1.385 -0.873,-2.5 -1.957,-2.5 z" />
  <path
     inkscape:connector-curvature="0"
     id="path20"
     style="fill:#7e57c2;fill-opacity:1;stroke:none"
     d="m 13.957,18.9978 3.13,0 c 4.304,-0.444 3.522,-5 6.261,-5 l 4.696,0 c 1.084,0 1.957,0.991 1.957,2.222 l 0,9.555 c 0,1.231 -0.873,2.222 -1.957,2.222 l -14.09,0 c -1.084,0 -1.957,-0.991 -1.957,-2.222 l 0,-4.222 c 0,-1.333 0.783,-2.555 1.957,-2.556 z" />
  <path
     inkscape:connector-curvature="0"
     id="path22"
     style="opacity:0.15;fill:#000000;fill-opacity:1;stroke:none"
     d="m 12,24.8878 0,0.889 c 0,1.231 0.873,2.222 1.957,2.222 l 14.09,0 c 1.084,0 1.957,-0.991 1.957,-2.222 l 0,-0.889 c 0,1.231 -0.873,2.111 -1.957,2.111 l -14.09,0 c -1.084,0 -1.957,-0.88 -1.957,-2.111 z" />
</svg>

<svg xmlns="http://www.w3.org/2000/svg" viewBox="0 0 32 32">
 <rect width="18" style="fill:#512da8;fill-opacity:1;stroke:none" y="5.998" x="2" ry="2.187" rx="1.957" height="12"/>
 <path style="fill:#fff;opacity:0.1;fill-opacity:1;stroke:none" d="M 3.957,5.9978 C 2.873,5.9978 2,7.1128 2,8.4978 l 0,1 c 0,-1.385 0.873,-2.5 1.957,-2.5 l 14.09,0 c 1.084,0 1.957,1.115 1.957,2.5 l 0,-1 c 0,-1.385 -0.873,-2.5 -1.957,-2.5 z"/>
 <path style="fill:#7e57c2;fill-opacity:1;stroke:none" d="m 3.957 8.998 3.13 0 c 4.304 -0.444 3.522 -5 6.261 -5 l 4.696 0 c 1.084 0 1.957 0.991 1.957 2.222 l 0 9.556 c 0 1.231 -0.873 2.222 -1.957 2.222 l -14.09 0 c -1.084 0 -1.957 -0.991 -1.957 -2.222 l 0 -4.222 c 0 -1.333 0.783 -2.556 1.957 -2.556 z"/>
 <path style="fill:#000;opacity:0.075;fill-opacity:1;stroke:none" d="m 2,14.8878 0,0.889 c 0,1.231 0.873,2.222 1.957,2.222 l 14.09,0 c 1.084,0 1.957,-0.991 1.957,-2.222 l 0,-0.889 c 0,1.231 -0.873,2.111 -1.957,2.111 l -14.09,0 C 2.873,16.9988 2,16.1188 2,14.8878 Z"/>
 <path style="fill:#fff;opacity:0.5;fill-opacity:1;stroke:none" d="m 13.348 3.998 c -1.238 0 -1.759 0.939 -2.354 2 l -7.04 0 c -1.084 0 -1.957 0.976 -1.957 2.188 l 0 0.313 l 0 1 l 0 2 c 0 0.018 -0.004 0.035 -0.004 0.053 l 0 4.221 c 0 0.012 0.004 0.023 0.004 0.035 c 0.002 0.141 0.013 0.281 0.037 0.414 c 0.124 0.724 0.563 1.32 1.154 1.6 c 0.07 0.033 0.145 0.052 0.219 0.076 c 0.051 0.017 0.099 0.041 0.152 0.053 c 0.126 0.029 0.256 0.045 0.391 0.045 c 0.001 0 0.003 0 0.004 0 l 14.09 0 c 0.135 0 0.267 -0.016 0.395 -0.045 c 0 0 0.002 0 0.002 0 c 0.088 -0.02 0.171 -0.055 0.254 -0.088 c 0.036 -0.015 0.076 -0.022 0.111 -0.039 c 0.026 -0.012 0.049 -0.031 0.074 -0.045 c 0.089 -0.047 0.177 -0.095 0.258 -0.156 c 0.001 -0.001 0.002 -0.003 0.004 -0.004 c 0.418 -0.317 0.719 -0.81 0.82 -1.385 c 0.025 -0.137 0.035 -0.28 0.037 -0.426 c 0 -0.011 0.004 -0.022 0.004 -0.033 l 0 -0.889 c 0 0.007 -0.002 0.014 -0.002 0.021 l 0 -5.437 c 0 0.009 0.002 0.017 0.002 0.025 l 0 -1 c 0 -0.009 -0.002 -0.017 -0.002 -0.025 l 0 -2.252 c 0 -1.231 -0.873 -2.223 -1.957 -2.223 l -4.697 0 z"/>
 <rect width="18" style="fill:#512da8;fill-opacity:1;stroke:none" y="15.998" x="12" ry="2.187" rx="1.957" height="12"/>
 <path style="fill:#fff;opacity:0.2;fill-opacity:1;stroke:none" d="m 13.957 15.998 c -1.084 0 -1.957 1.115 -1.957 2.5 l 0 1 c 0 -1.385 0.873 -2.5 1.957 -2.5 l 14.09 0 c 1.084 0 1.957 1.115 1.957 2.5 l 0 -1 c 0 -1.385 -0.873 -2.5 -1.957 -2.5 z"/>
 <path style="fill:#7e57c2;fill-opacity:1;stroke:none" d="m 13.957 18.998 3.13 0 c 4.304 -0.444 3.522 -5 6.261 -5 l 4.696 0 c 1.084 0 1.957 0.991 1.957 2.222 l 0 9.555 c 0 1.231 -0.873 2.222 -1.957 2.222 l -14.09 0 c -1.084 0 -1.957 -0.991 -1.957 -2.222 l 0 -4.222 c 0 -1.333 0.783 -2.555 1.957 -2.556 z"/>
 <path style="fill:#000;opacity:0.15;fill-opacity:1;stroke:none" d="m 12 24.888 0 0.889 c 0 1.231 0.873 2.222 1.957 2.222 l 14.09 0 c 1.084 0 1.957 -0.991 1.957 -2.222 l 0 -0.889 c 0 1.231 -0.873 2.111 -1.957 2.111 l -14.09 0 c -1.084 0 -1.957 -0.88 -1.957 -2.111 z"/>
</svg>
